assets/images/icons/faq-icon.svg

<svg width="40" height="40" viewBox="0 0 40 40" fill="none" xmlns="http://www.w3.org/2000/svg">
<g clip-path="url(#clip0_211_4107)">
<path opacity="0.1" d="M0.278944 28.9522C-0.0736318 25.9401 -0.122607 22.9843 0.310078 20.3101C0.84212 17.0218 2.23117 13.3636 3.74867 10.092C6.71454 3.69799 12.0239 1.46106 18.489 0.452582C27.5008 -0.953153 39.9215 0.452613 40 11.3589C39.5479 15.2591 36.5646 26.1018 26.4939 26.9292C23.1642 27.2028 21.9185 30.5473 20.4515 34.3758C16.5911 44.4503 1.56969 39.9794 0.278944 28.9522Z" fill="#7FB51F"/>
<path d="M33.6847 17.4331C33.4151 15.9423 32.0495 14.644 30.5549 14.4094C29.8686 14.2962 28.0152 14.1655 26.426 14.1157C26.4561 14.6456 26.4714 15.192 26.4725 15.7563V15.7591C26.4725 17.3199 26.3582 18.7264 26.1285 20.0581V20.0641V20.0696C25.9404 21.1086 25.3848 22.1127 24.5639 22.9018C23.7534 23.6811 22.7368 24.2001 21.6994 24.3642C20.7484 24.5206 18.1578 24.6852 16.3285 24.7131L16.3203 24.7262C16.3378 24.8405 16.3559 24.951 16.375 25.0543C16.6452 26.5451 18.0107 27.8434 19.5048 28.0774C20.4077 28.2267 23.3274 28.4056 25.0113 28.3908L26.9357 31.4478C27.0195 31.5807 27.1355 31.6901 27.273 31.766C27.4106 31.8419 27.5651 31.8817 27.7221 31.8817C27.8792 31.8817 28.0337 31.8419 28.1712 31.766C28.3087 31.6901 28.4247 31.5807 28.5085 31.4478L30.6413 28.0627C32.1031 27.7947 33.4244 26.5178 33.6891 25.0549C33.8444 24.1531 33.9904 22.9221 33.9926 21.2415C33.9948 19.561 33.84 18.3343 33.6847 17.4331Z" fill="#7FB51F"/>
<path d="M24.8355 11.6826C24.5467 10.0884 23.0855 8.70046 21.4886 8.44944C20.5195 8.28921 17.3761 8.09725 15.5785 8.11421C13.7815 8.09725 10.638 8.28921 9.66898 8.44944C8.07102 8.70046 6.61031 10.0901 6.32211 11.6826C6.15586 12.6467 6 13.9625 6 15.7606C6 17.5587 6.15586 18.874 6.32211 19.8359C6.60539 21.4005 8.01742 22.7666 9.58094 23.0532L11.8603 26.6735C11.9499 26.8155 12.074 26.9325 12.221 27.0136C12.3681 27.0946 12.5332 27.1372 12.7011 27.1372C12.869 27.1372 13.0342 27.0946 13.1812 27.0136C13.3283 26.9325 13.4524 26.8155 13.542 26.6735L15.6004 23.4043C17.4012 23.4196 20.5223 23.2287 21.4886 23.0691C23.0866 22.818 24.5467 21.4284 24.8355 19.8359C24.9995 18.8718 25.1581 17.556 25.1603 15.7584C25.1625 13.9608 25.0017 12.6467 24.8355 11.6826ZM16.5087 17.8732C16.5114 17.9933 16.4902 18.1127 16.4461 18.2245C16.4021 18.3363 16.3362 18.4382 16.2524 18.5242C16.1685 18.6102 16.0683 18.6786 15.9577 18.7254C15.847 18.7722 15.7282 18.7965 15.608 18.7969C14.0137 18.7808 12.4196 18.7453 10.8256 18.6902C10.5782 18.6766 10.3441 18.5738 10.1666 18.4009C9.98918 18.228 9.88038 17.9966 9.86039 17.7496C9.83086 17.2492 10.2252 16.8544 10.7354 16.8658C12.3512 16.9023 13.9674 16.9262 15.584 16.9375C15.8303 16.9408 16.0654 17.0407 16.2387 17.2158C16.412 17.3908 16.5096 17.6269 16.5104 17.8732H16.5087ZM20.2505 14.756C17.0706 14.7735 13.8905 14.7611 10.7102 14.7188C10.1984 14.7112 9.7718 14.2988 9.76359 13.7984C9.75539 13.298 10.171 12.8933 10.6851 12.8939C13.877 12.9008 17.0689 12.903 20.2609 12.9005C20.3825 12.8997 20.5031 12.9231 20.6157 12.9693C20.7283 13.0155 20.8306 13.0835 20.9168 13.1694C21.0029 13.2553 21.0712 13.3575 21.1176 13.47C21.164 13.5824 21.1877 13.703 21.1873 13.8247C21.1846 14.072 21.0849 14.3085 20.9097 14.4831C20.7345 14.6578 20.4978 14.7567 20.2505 14.7587V14.756Z" fill="#7FB51F"/>
</g>
<defs>
<clipPath id="clip0_211_4107">
<rect width="40" height="40" fill="white"/>
</clipPath>
</defs>
</svg>

<svg xmlns="http://www.w3.org/2000/svg" width="40" height="40" fill="none"><g fill="#7FB51F" clip-path="url(#a)"><path d="M.279 28.952c-.353-3.012-.402-5.968.031-8.642.532-3.288 1.921-6.946 3.439-10.218 2.966-6.394 8.275-8.63 14.74-9.64C27.501-.952 39.922.453 40 11.36c-.452 3.9-3.435 14.743-13.506 15.57-3.33.274-4.575 3.618-6.042 7.447C16.592 44.45 1.57 39.979.279 28.952" opacity=".1"/><path d="M33.685 17.433c-.27-1.49-1.636-2.789-3.13-3.024-.686-.113-2.54-.244-4.129-.293q.044.795.047 1.64v.003c0 1.56-.115 2.967-.344 4.3v.011c-.189 1.039-.744 2.043-1.565 2.832-.81.78-1.827 1.298-2.865 1.462-.95.157-3.541.321-5.37.35l-.009.012q.027.172.055.328c.27 1.491 1.636 2.79 3.13 3.023.903.15 3.822.329 5.506.314l1.925 3.057a.93.93 0 0 0 1.573 0l2.132-3.385c1.462-.268 2.783-1.545 3.048-3.008.155-.902.301-2.133.304-3.814a21.7 21.7 0 0 0-.308-3.808"/><path d="M24.836 11.683c-.29-1.595-1.75-2.983-3.347-3.234-.97-.16-4.113-.352-5.91-.335-1.798-.017-4.941.175-5.91.335-1.598.251-3.059 1.641-3.347 3.234-.166.964-.322 2.28-.322 4.078s.156 3.113.322 4.075c.283 1.565 1.695 2.93 3.259 3.217l2.28 3.62a.995.995 0 0 0 1.681 0l2.058-3.269c1.801.016 4.922-.175 5.889-.335 1.598-.251 3.058-1.64 3.346-3.233.165-.964.323-2.28.325-4.078.003-1.797-.158-3.111-.325-4.075m-8.327 6.19a.9.9 0 0 1-.901.924 196 196 0 0 1-4.782-.107 1.025 1.025 0 0 1-.966-.94c-.03-.5.365-.896.875-.884q2.424.054 4.849.072a.94.94 0 0 1 .926.935zm3.741-3.117q-4.77.027-9.54-.037c-.512-.008-.938-.42-.946-.92-.009-.501.407-.906.921-.905q4.788.01 9.576.006a.92.92 0 0 1 .926.925.944.944 0 0 1-.937.934z"/></g><defs><clipPath id="a"><path fill="#fff" d="M0 0h40v40H0z"/></clipPath></defs></svg>
